X:5
T:Polska
B:Folkmusik i Västergötland, musikbilaga, Landtmansson, Samuel, 1911, s.6
O:Ullervad, Västergötland
R:Polska
S:Adolf Olsson "Blinde Adel"
Z:Per Oldberg 2012-08-11
L:1/8
M:3/4
K:D
g2f>d e>c | d2 A>d f>a | g2 f>d e>c | d2 B>G A2 | 
g2f>d e>c | d2 A>d f>a | g2 f>d e>c | ((3ABc) d4 :: 
c>d e>e c>e | g(f/g/) a2f2 | d>d e>e c(A/c/) | d2 B(G/B/) A2 | 
c>d e>e c>e | g(f/g/) a2f2 | d>d e>e c(A/c/) | ((3ABc) d4  :|

